X: 191
T:Old Toasty
G:hornpipe
S:Gordon Highlanders book 1
C:Angus Lawrie, Strathclyde Police
M:2/4
L:1/16
Q:1/4=92
K:AMix
   a2 |A2A2   c>BA>c|e2c<e  f2e>f|a2a2 f2e>f|a>fe>c B2
   a2 |A2A2   c>BA>c|e2c<e  f2e>f|a2a2 f2e>c|B2A2   A2:|
   f>g|a2a2   f2e>c |e>fa>e f2e>f|a2a2 f2e>f|a>fe>c B2
[1 f>g|a2a2   f2e>c |e>fa>e f2e>f|a2a2 f2e>c|B2A2   A2:|
[2 f>g|A2A2   c>BA>c|e2c<e  f2e>f|a2a2 f2e>c|B2A2   A2||
   a2 |c>cc>B A>AA>c|e2c<e  f2e>f|a2a2 f2e>f|a>fe>c B2
   a2 |c>cc>B A>AA>c|e2c<e  f2e>f|a2a2 f2e>c|B2A2   A2:|
   c>d|e>fe>c a2e2  |f>ga>f e2f>g|a2a2 f2e>f|a>fe>c B2
[1 c>d|e>fe>c a2e2  |f>ga>f e2f>g|a2a2 f2e>c|B2A2   A2:|
[2 c>d|A2A2   c>BA>c|e2c<e  f2e>f|a2a2 f2e>c|B2A2   A2|]

Some people call this "pentatonic major".  It is a strong enough feature
of Scottish music that tunes originally in seven-note modes have been
adapted to it in folk transmission.  "Miss Cruickshank's Reel", by William
Marshall (first published as "Miss Hopkins Reel" in 1781), was in the major
mode (originally in B flat - I've transposed it for easier comparison) the
way he wrote it:

